X:1606
T:Todlen Hame
P:Todlen Hame
C:Aird's Collection 1782
R:Jig (8x32)
B:RSCDS 16-6
Z:Anselm Lingnau <anselm@strathspey.org>
M:6/8
L:1/8
K:D
d/e/|"D"f>ed "Em"B>cd|"D"A>Bd "A"ede|"D"f>ed "G"B>cd|"A"A>Bd d2 d/e/|
     "D"f>ed "Em"B>cd|"D"A>Bd "A"ede|"D"f>ed "G"B>cd|"A"A>Bd d2||
d|"G"g>ag "D"f2f|"Em"e/f/gf "A"e2d/e/|"D"f>ed "G"B>cd|"A"A>Bd d2 d|
  "G"g>ag "D"f2f|"Em"e/f/gf "A"e2d/e/|"D"f>ed "G"B>cd|"A"A>Bd d2|]
